img/logo_footer.svg

<svg width="146" height="32" viewBox="0 0 146 32" fill="none" xmlns="http://www.w3.org/2000/svg">
<g clip-path="url(#clip0_2416_13063)">
<path d="M14.7612 25.4168C9.25904 25.4168 4.9152 21.3524 4.9152 15.2558C4.9152 9.4495 8.67987 5.09479 14.7612 5.09479C17.3675 5.09479 19.9739 6.25604 21.7114 7.99793L25.1865 4.51416C22.5802 1.90133 18.8155 0.15945 14.7612 0.15945C6.07356 0.15945 -0.0078125 6.54636 -0.0078125 15.2558C-0.0078125 24.5458 6.65274 30.3521 14.7612 30.3521C18.8155 30.3521 22.5802 28.6102 25.1865 25.9974L21.7114 22.5136C19.9739 24.2555 17.3675 25.4168 14.7612 25.4168ZM30.1095 0.449771V30.0618H35.0325C42.2722 30.0618 52.1183 28.0296 52.1183 15.2558C52.1183 2.19165 41.9827 0.449771 35.0325 0.449771H30.1095ZM35.0325 25.1264V5.09479C35.0325 5.09479 47.1953 3.35291 47.1953 14.9655C47.4848 26.8683 35.0325 25.1264 35.0325 25.1264ZM68.0457 21.933C74.1271 21.933 79.0501 16.9977 79.0501 10.9011C79.0501 4.80447 74.1271 -0.130859 68.0457 -0.130859C61.9643 -0.130859 57.0413 4.80447 57.0413 10.9011C57.0413 16.9977 61.9643 21.933 68.0457 21.933ZM68.0457 4.80448C71.5208 4.80448 74.1271 7.4173 74.1271 10.9011C74.1271 14.3848 71.5208 16.9977 68.0457 16.9977C64.5706 16.9977 61.9643 14.3848 61.9643 10.9011C61.9643 7.70761 64.8602 4.80448 68.0457 4.80448ZM77.6021 25.1264H58.1997V30.0618H77.6021V25.1264Z" fill="#74D414"/>
</g>
<path d="M103.471 12.0233C102.398 12.0233 101.428 11.7859 100.561 11.3111C99.7038 10.8363 99.0278 10.1809 98.5323 9.34488C98.0472 8.49852 97.8047 7.55411 97.8047 6.51164C97.8047 5.46918 98.0472 4.52993 98.5323 3.69389C99.0278 2.84754 99.709 2.18696 100.576 1.71218C101.443 1.23739 102.413 1 103.487 1C104.292 1 105.035 1.13418 105.716 1.40254C106.397 1.67089 106.975 2.06311 107.45 2.57918L106.722 3.30684C105.876 2.45016 104.808 2.02182 103.518 2.02182C102.661 2.02182 101.882 2.21793 101.18 2.61014C100.478 3.00236 99.9257 3.53907 99.5232 4.22029C99.131 4.9015 98.9349 5.66529 98.9349 6.51164C98.9349 7.358 99.131 8.12179 99.5232 8.803C99.9257 9.48421 100.478 10.0209 101.18 10.4131C101.882 10.8054 102.661 11.0015 103.518 11.0015C104.818 11.0015 105.886 10.568 106.722 9.70096L107.45 10.4286C106.975 10.9447 106.392 11.3421 105.701 11.6208C105.019 11.8891 104.276 12.0233 103.471 12.0233Z" fill="white"/>
<path d="M109.892 1.09289H114.305C115.45 1.09289 116.462 1.32512 117.339 1.78959C118.217 2.24373 118.898 2.88366 119.383 3.70938C119.868 4.52477 120.111 5.45886 120.111 6.51164C120.111 7.56443 119.868 8.50368 119.383 9.32939C118.898 10.1448 118.217 10.7847 117.339 11.2492C116.462 11.7033 115.45 11.9304 114.305 11.9304H109.892V1.09289ZM114.243 10.9395C115.192 10.9395 116.023 10.7538 116.735 10.3822C117.448 10.0003 118 9.47905 118.392 8.81848C118.784 8.14759 118.98 7.37864 118.98 6.51164C118.98 5.64464 118.784 4.88086 118.392 4.22029C118 3.54939 117.448 3.02816 116.735 2.65659C116.023 2.2747 115.192 2.08375 114.243 2.08375H111.038V10.9395H114.243Z" fill="white"/>
<path d="M127.421 12.0233C126.347 12.0233 125.372 11.7859 124.495 11.3111C123.628 10.826 122.946 10.1654 122.451 9.32939C121.966 8.49336 121.723 7.55411 121.723 6.51164C121.723 5.46918 121.966 4.52993 122.451 3.69389C122.946 2.85786 123.628 2.20245 124.495 1.72766C125.372 1.24255 126.347 1 127.421 1C128.494 1 129.459 1.23739 130.316 1.71218C131.183 2.18696 131.864 2.84754 132.36 3.69389C132.855 4.52993 133.103 5.46918 133.103 6.51164C133.103 7.55411 132.855 8.49852 132.36 9.34488C131.864 10.1809 131.183 10.8363 130.316 11.3111C129.459 11.7859 128.494 12.0233 127.421 12.0233ZM127.421 11.0015C128.277 11.0015 129.052 10.8105 129.743 10.4286C130.435 10.0364 130.977 9.4997 131.369 8.81848C131.761 8.12695 131.957 7.358 131.957 6.51164C131.957 5.66529 131.761 4.9015 131.369 4.22029C130.977 3.52875 130.435 2.99204 129.743 2.61014C129.052 2.21793 128.277 2.02182 127.421 2.02182C126.564 2.02182 125.785 2.21793 125.083 2.61014C124.391 2.99204 123.844 3.52875 123.442 4.22029C123.05 4.9015 122.854 5.66529 122.854 6.51164C122.854 7.358 123.05 8.12695 123.442 8.81848C123.844 9.4997 124.391 10.0364 125.083 10.4286C125.785 10.8105 126.564 11.0015 127.421 11.0015Z" fill="white"/>
<path d="M106.397 25.5116H107.497V29.6454C106.991 30.0892 106.392 30.4298 105.701 30.6672C105.009 30.9046 104.281 31.0233 103.518 31.0233C102.434 31.0233 101.458 30.7859 100.591 30.3111C99.7245 29.8363 99.0433 29.1809 98.5478 28.3449C98.0524 27.4985 97.8047 26.5541 97.8047 25.5116C97.8047 24.4692 98.0524 23.5299 98.5478 22.6939C99.0433 21.8475 99.7245 21.187 100.591 20.7122C101.458 20.2374 102.439 20 103.533 20C104.359 20 105.117 20.1342 105.809 20.4025C106.5 20.6606 107.084 21.0476 107.558 21.5637L106.846 22.2914C105.99 21.445 104.901 21.0218 103.58 21.0218C102.702 21.0218 101.907 21.2179 101.195 21.6101C100.493 21.992 99.9412 22.5287 99.5387 23.2203C99.1362 23.9015 98.9349 24.6653 98.9349 25.5116C98.9349 26.358 99.1362 27.1218 99.5387 27.803C99.9412 28.4842 100.493 29.0209 101.195 29.4131C101.897 29.8054 102.687 30.0015 103.564 30.0015C104.679 30.0015 105.623 29.7228 106.397 29.1654V25.5116Z" fill="white"/>
<path d="M110.507 19.4426H111.606V30.9304H110.507V19.4426Z" fill="white"/>
<path d="M117.993 31.0078C117.209 31.0078 116.502 30.8323 115.872 30.4814C115.243 30.1202 114.747 29.6247 114.386 28.9951C114.025 28.3655 113.844 27.6533 113.844 26.8586C113.844 26.0638 114.025 25.3517 114.386 24.7221C114.747 24.0924 115.243 23.6022 115.872 23.2512C116.502 22.9003 117.209 22.7249 117.993 22.7249C118.778 22.7249 119.485 22.9003 120.114 23.2512C120.744 23.6022 121.234 24.0924 121.585 24.7221C121.946 25.3517 122.127 26.0638 122.127 26.8586C122.127 27.6533 121.946 28.3655 121.585 28.9951C121.234 29.6247 120.744 30.1202 120.114 30.4814C119.485 30.8323 118.778 31.0078 117.993 31.0078ZM117.993 30.0324C118.571 30.0324 119.087 29.9034 119.541 29.6454C120.006 29.377 120.367 29.0003 120.625 28.5152C120.883 28.0301 121.012 27.4779 121.012 26.8586C121.012 26.2393 120.883 25.6871 120.625 25.202C120.367 24.7169 120.006 24.3453 119.541 24.0873C119.087 23.8189 118.571 23.6847 117.993 23.6847C117.415 23.6847 116.894 23.8189 116.43 24.0873C115.975 24.3453 115.614 24.7169 115.346 25.202C115.088 25.6871 114.959 26.2393 114.959 26.8586C114.959 27.4779 115.088 28.0301 115.346 28.5152C115.614 29.0003 115.975 29.377 116.43 29.6454C116.894 29.9034 117.415 30.0324 117.993 30.0324Z" fill="white"/>
<path d="M128.567 22.7249C129.331 22.7249 130.022 22.9003 130.641 23.2512C131.261 23.5919 131.746 24.077 132.097 24.7066C132.448 25.3362 132.623 26.0535 132.623 26.8586C132.623 27.6637 132.448 28.381 132.097 29.0106C131.746 29.6402 131.261 30.1305 130.641 30.4814C130.022 30.8323 129.331 31.0078 128.567 31.0078C127.886 31.0078 127.272 30.8633 126.724 30.5743C126.188 30.2853 125.754 29.8673 125.424 29.3203V30.9304H124.371V19.4426H125.47V24.335C125.811 23.8086 126.245 23.4112 126.771 23.1429C127.308 22.8642 127.906 22.7249 128.567 22.7249ZM128.489 30.0324C129.057 30.0324 129.573 29.9034 130.038 29.6454C130.502 29.377 130.863 29.0003 131.121 28.5152C131.39 28.0301 131.524 27.4779 131.524 26.8586C131.524 26.2393 131.39 25.6871 131.121 25.202C130.863 24.7169 130.502 24.3453 130.038 24.0873C129.573 23.8189 129.057 23.6847 128.489 23.6847C127.911 23.6847 127.39 23.8189 126.926 24.0873C126.472 24.3453 126.11 24.7169 125.842 25.202C125.584 25.6871 125.455 26.2393 125.455 26.8586C125.455 27.4779 125.584 28.0301 125.842 28.5152C126.11 29.0003 126.472 29.377 126.926 29.6454C127.39 29.9034 127.911 30.0324 128.489 30.0324Z" fill="white"/>
<path d="M137.667 22.7249C138.73 22.7249 139.546 22.9932 140.114 23.5299C140.681 24.0563 140.965 24.8407 140.965 25.8832V30.9304H139.912V29.6609C139.665 30.084 139.298 30.4143 138.813 30.6517C138.338 30.8891 137.771 31.0078 137.11 31.0078C136.202 31.0078 135.479 30.7911 134.942 30.3576C134.406 29.9241 134.137 29.3512 134.137 28.639C134.137 27.9475 134.385 27.3901 134.881 26.967C135.386 26.5438 136.186 26.3322 137.28 26.3322H139.866V25.8368C139.866 25.1349 139.67 24.6034 139.277 24.2421C138.885 23.8705 138.312 23.6847 137.559 23.6847C137.043 23.6847 136.547 23.7725 136.073 23.9479C135.598 24.1131 135.19 24.3453 134.85 24.6446L134.354 23.8241C134.767 23.4732 135.262 23.2048 135.84 23.019C136.418 22.8229 137.027 22.7249 137.667 22.7249ZM137.28 30.1408C137.9 30.1408 138.431 30.0015 138.875 29.7228C139.319 29.4338 139.649 29.0209 139.866 28.4842V27.1528H137.311C135.918 27.1528 135.221 27.6379 135.221 28.6081C135.221 29.0829 135.402 29.4596 135.763 29.7383C136.124 30.0066 136.63 30.1408 137.28 30.1408Z" fill="white"/>
<path d="M143.951 19.4426H145.05V30.9304H143.951V19.4426Z" fill="white"/>
<defs>
<clipPath id="clip0_2416_13063">
<rect width="79" height="30" fill="white"/>
</clipPath>
</defs>
</svg>

<svg width="146" height="32" fill="none" xmlns="http://www.w3.org/2000/svg"><g clip-path="url(#clip0_2416_13063)"><path d="M14.761 25.417c-5.502 0-9.846-4.065-9.846-10.161 0-5.806 3.765-10.161 9.846-10.161 2.607 0 5.213 1.161 6.95 2.903l3.476-3.484C22.58 1.901 18.814.16 14.76.16 6.074.16-.008 6.546-.008 15.256c0 9.29 6.66 15.096 14.77 15.096 4.053 0 7.818-1.742 10.424-4.355l-3.475-3.483c-1.737 1.742-4.343 2.903-6.95 2.903zM30.11.45v29.612h4.922c7.24 0 17.086-2.032 17.086-14.806C52.118 2.192 41.983.45 35.032.45H30.11zm4.922 24.676V5.095s12.163-1.742 12.163 9.87c.29 11.903-12.163 10.161-12.163 10.161zm33.014-3.193c6.081 0 11.004-4.935 11.004-11.032S74.127-.13 68.046-.13c-6.082 0-11.005 4.935-11.005 11.032s4.923 11.032 11.005 11.032zm0-17.129c3.475 0 6.081 2.613 6.081 6.097 0 3.484-2.606 6.097-6.081 6.097-3.475 0-6.082-2.613-6.082-6.097 0-3.193 2.896-6.097 6.082-6.097zm9.556 20.322H58.2v4.936h19.402v-4.936z" fill="#74D414"/></g><path d="M103.471 12.023c-1.073 0-2.043-.237-2.91-.712a5.301 5.301 0 01-2.029-1.966c-.485-.846-.727-1.79-.727-2.833 0-1.043.242-1.982.727-2.818a5.24 5.24 0 012.044-1.982c.867-.475 1.837-.712 2.911-.712.805 0 1.548.134 2.229.403a4.62 4.62 0 011.734 1.176l-.728.728c-.846-.857-1.914-1.285-3.204-1.285a4.71 4.71 0 00-2.338.588 4.355 4.355 0 00-1.657 1.61c-.392.682-.588 1.445-.588 2.292 0 .846.196 1.61.588 2.291a4.355 4.355 0 001.657 1.61 4.71 4.71 0 002.338.588c1.3 0 2.368-.433 3.204-1.3l.728.728a4.757 4.757 0 01-1.749 1.192 6.037 6.037 0 01-2.23.402zm6.421-10.93h4.413c1.145 0 2.157.232 3.034.697a4.956 4.956 0 012.044 1.92c.485.815.728 1.749.728 2.802 0 1.052-.243 1.992-.728 2.817a5.092 5.092 0 01-2.044 1.92c-.877.454-1.889.681-3.034.681h-4.413V1.093zm4.351 9.847c.949 0 1.78-.186 2.492-.558a4.17 4.17 0 001.657-1.564c.392-.67.588-1.44.588-2.306 0-.867-.196-1.631-.588-2.292a4.032 4.032 0 00-1.657-1.563c-.712-.382-1.543-.573-2.492-.573h-3.205v8.856h3.205zm13.178 1.083c-1.074 0-2.049-.237-2.926-.712a5.384 5.384 0 01-2.044-1.982c-.485-.836-.728-1.775-.728-2.817 0-1.043.243-1.982.728-2.818a5.271 5.271 0 012.044-1.966c.877-.485 1.852-.728 2.926-.728 1.073 0 2.038.237 2.895.712a5.244 5.244 0 012.044 1.982c.495.836.743 1.775.743 2.818 0 1.042-.248 1.987-.743 2.833a5.278 5.278 0 01-2.044 1.966c-.857.475-1.822.712-2.895.712zm0-1.021c.856 0 1.631-.192 2.322-.573a4.27 4.27 0 001.626-1.61 4.598 4.598 0 00.588-2.307c0-.847-.196-1.61-.588-2.292a4.13 4.13 0 00-1.626-1.61c-.691-.392-1.466-.588-2.322-.588a4.71 4.71 0 00-2.338.588 4.234 4.234 0 00-1.641 1.61c-.392.682-.588 1.445-.588 2.292 0 .846.196 1.615.588 2.306a4.38 4.38 0 001.641 1.61c.702.382 1.481.573 2.338.573zm-21.024 14.51h1.1v4.133a5.303 5.303 0 01-1.796 1.022 6.682 6.682 0 01-2.183.356c-1.084 0-2.06-.237-2.927-.712a5.276 5.276 0 01-2.043-1.966c-.496-.846-.743-1.79-.743-2.833 0-1.043.247-1.982.743-2.818a5.242 5.242 0 012.043-1.982c.867-.475 1.848-.712 2.942-.712.826 0 1.584.134 2.276.402a4.448 4.448 0 011.749 1.162l-.712.727c-.856-.846-1.945-1.27-3.266-1.27-.878 0-1.673.197-2.385.59a4.21 4.21 0 00-1.656 1.61c-.403.68-.604 1.444-.604 2.29 0 .847.201 1.61.604 2.292a4.354 4.354 0 001.656 1.61c.702.392 1.492.588 2.369.588 1.115 0 2.059-.278 2.833-.836v-3.653zm4.11-6.069h1.099V30.93h-1.099V19.443zm7.486 11.565c-.784 0-1.491-.176-2.121-.527a3.953 3.953 0 01-1.486-1.486c-.361-.63-.542-1.342-.542-2.136 0-.795.181-1.507.542-2.137a3.83 3.83 0 011.486-1.47c.63-.352 1.337-.527 2.121-.527.785 0 1.492.175 2.121.526a3.73 3.73 0 011.471 1.471c.361.63.542 1.342.542 2.137 0 .794-.181 1.506-.542 2.136a3.838 3.838 0 01-1.471 1.486c-.629.351-1.336.527-2.121.527zm0-.976c.578 0 1.094-.129 1.548-.387a2.786 2.786 0 001.084-1.13c.258-.485.387-1.037.387-1.656 0-.62-.129-1.172-.387-1.657a2.685 2.685 0 00-1.084-1.115 2.984 2.984 0 00-1.548-.402c-.578 0-1.099.134-1.563.402a2.81 2.81 0 00-1.084 1.115c-.258.485-.387 1.037-.387 1.657 0 .619.129 1.171.387 1.656a2.92 2.92 0 001.084 1.13c.464.258.985.387 1.563.387zm10.574-7.307a4.13 4.13 0 012.074.526c.62.34 1.105.826 1.456 1.456s.526 1.346.526 2.152c0 .805-.175 1.522-.526 2.152a3.76 3.76 0 01-1.456 1.47 4.13 4.13 0 01-2.074.527 3.889 3.889 0 01-1.843-.434 3.37 3.37 0 01-1.3-1.254v1.61h-1.053V19.443h1.099v4.892a3.35 3.35 0 011.301-1.192 3.838 3.838 0 011.796-.418zm-.078 7.307c.568 0 1.084-.129 1.549-.387a2.79 2.79 0 001.083-1.13c.269-.485.403-1.037.403-1.656 0-.62-.134-1.172-.403-1.657a2.688 2.688 0 00-1.083-1.115 3.042 3.042 0 00-1.549-.402c-.578 0-1.099.134-1.563.402-.454.258-.816.63-1.084 1.115-.258.485-.387 1.037-.387 1.657 0 .619.129 1.171.387 1.656.268.485.63.862 1.084 1.13.464.258.985.387 1.563.387zm9.178-7.307c1.063 0 1.879.268 2.447.805.567.526.851 1.31.851 2.353v5.047h-1.053v-1.27c-.247.424-.614.754-1.099.992-.475.237-1.042.356-1.703.356-.908 0-1.631-.217-2.168-.65-.536-.434-.805-1.007-.805-1.719 0-.691.248-1.249.744-1.672.505-.423 1.305-.635 2.399-.635h2.586v-.495c0-.702-.196-1.234-.589-1.595-.392-.372-.965-.557-1.718-.557a4.25 4.25 0 00-1.486.263 3.634 3.634 0 00-1.223.697l-.496-.82a4.28 4.28 0 011.486-.806 5.648 5.648 0 011.827-.294zm-.387 7.416c.62 0 1.151-.14 1.595-.418.444-.29.774-.702.991-1.239v-1.331h-2.555c-1.393 0-2.09.485-2.09 1.455 0 .475.181.852.542 1.13.361.269.867.403 1.517.403zm6.671-10.698h1.099V30.93h-1.099V19.443z" fill="#fff"/><defs><clipPath id="clip0_2416_13063"><path fill="#fff" d="M0 0h79v30H0z"/></clipPath></defs></svg>
